docs/img/icons/watch.svg

<svg width="70" height="70" viewBox="0 0 70 70" fill="none" xmlns="http://www.w3.org/2000/svg">
<path d="M39.6662 65.3284C53.8404 65.3284 65.3309 53.8379 65.3309 39.6636C65.3309 25.4894 53.8404 13.9989 39.6662 13.9989C25.492 13.9989 14.0015 25.4894 14.0015 39.6636C14.0175 53.8312 25.4985 65.3123 39.6662 65.3284ZM19.8344 38.4971H16.3941C17.0022 26.5494 26.552 16.9996 38.4996 16.3916V19.8318C38.4996 20.476 39.022 20.9984 39.6662 20.9984C40.3105 20.9984 40.8328 20.476 40.8328 19.8318V16.3916C52.7805 16.9996 62.3302 26.5494 62.9383 38.4971H58.3315C57.6872 38.4971 57.1649 39.0194 57.1649 39.6636C57.1649 40.3079 57.6872 40.8302 58.3315 40.8302H62.9383C62.3302 52.7777 52.7805 62.3277 40.8328 62.9357V59.4955C40.8328 58.8512 40.3105 58.3289 39.6662 58.3289C39.022 58.3289 38.4996 58.8512 38.4996 59.4955V62.9357C26.5521 62.3277 17.0022 52.7779 16.3941 40.8302H19.8344C20.4786 40.8302 21.0009 40.3079 21.0009 39.6636C21.0009 39.0194 20.4786 38.4971 19.8344 38.4971Z" fill="white"/>
<path d="M65.9317 24.5183C65.5839 23.9157 65.2154 23.3255 64.8269 22.7483L67.7072 19.868C68.1626 19.4125 68.1626 18.674 67.7072 18.2185L61.116 11.6273C60.6605 11.1719 59.922 11.1719 59.4665 11.6273L56.5815 14.5029C51.9149 11.3523 46.4594 9.57134 40.8327 9.3618V2.33316H48.9988C49.643 2.33316 50.1654 1.81082 50.1654 1.16658C50.1654 0.522336 49.643 0 48.9988 0H30.3335C29.6893 0 29.1669 0.522336 29.1669 1.16658C29.1669 1.81082 29.6893 2.33316 30.3335 2.33316H38.4996V9.3723C28.0954 9.76952 18.624 15.4814 13.4181 24.4982H7.00193C6.35769 24.4982 5.83535 25.0205 5.83535 25.6647C5.83535 26.309 6.35769 26.8313 7.00193 26.8313H14.0014C14.0317 26.8313 14.0574 26.8162 14.0877 26.8138C14.5081 26.8192 14.8981 26.5958 15.1062 26.2305C22.5284 12.6656 39.5418 7.68571 53.1069 15.1078C66.672 22.5299 71.6516 39.5435 64.2295 53.1085C56.8073 66.6735 39.7939 71.6533 26.2288 64.2313C21.5344 61.6628 17.6745 57.8028 15.106 53.1085C14.9 52.7418 14.5106 52.516 14.0899 52.5194C14.0596 52.5194 14.0328 52.5019 14.0013 52.5019H7.00178C6.35754 52.5019 5.83521 53.0242 5.83521 53.6685C5.83521 54.3127 6.35754 54.8351 7.00178 54.8351H13.418C21.7898 69.3362 40.332 74.3053 54.8331 65.9334C69.3344 57.5616 74.3033 39.0194 65.9317 24.5183ZM58.4879 15.9048L60.2911 14.1016L65.2327 19.0432L63.4269 20.8491C61.9745 19.0182 60.3174 17.3593 58.4879 15.9048Z" fill="white"/>
<path d="M11.6683 39.6636C11.6683 39.0194 11.146 38.4971 10.5017 38.4971H1.16908C0.524838 38.4971 0.00250244 39.0194 0.00250244 39.6636C0.00250244 40.3079 0.524838 40.8302 1.16908 40.8302H10.5017C11.146 40.8302 11.6683 40.3079 11.6683 39.6636Z" fill="white"/>
<path d="M3.50221 33.8308H11.6683C12.3125 33.8308 12.8348 33.3085 12.8348 32.6643C12.8348 32.02 12.3125 31.4977 11.6683 31.4977H3.50221C2.85797 31.4977 2.33563 32.02 2.33563 32.6643C2.33563 33.3085 2.85782 33.8308 3.50221 33.8308Z" fill="white"/>
<path d="M12.8348 46.6632C12.8348 46.0189 12.3125 45.4966 11.6683 45.4966H3.50221C2.85797 45.4966 2.33563 46.0189 2.33563 46.6632C2.33563 47.3074 2.85797 47.8297 3.50221 47.8297H11.6683C12.3125 47.8297 12.8348 47.3074 12.8348 46.6632Z" fill="white"/>
<path d="M36.508 47.488C36.9636 47.9434 37.702 47.9434 38.1576 47.488L54.373 31.2725C54.8207 30.8091 54.8079 30.0707 54.3444 29.623C53.8924 29.1864 53.1757 29.1864 52.7235 29.623L37.3328 45.0137L30.3917 38.0725C29.9282 37.625 29.1896 37.6377 28.7421 38.1011C28.3055 38.5531 28.3055 39.2699 28.7421 39.7221L36.508 47.488Z" fill="white"/>
</svg>

<svg width="70" height="70" fill="none" xmlns="http://www.w3.org/2000/svg"><path d="M39.666 65.328c14.174 0 25.665-11.49 25.665-25.664 0-14.175-11.49-25.665-25.665-25.665-14.174 0-25.664 11.49-25.664 25.665.015 14.167 11.496 25.648 25.664 25.664zm-19.832-26.83h-3.44C17.002 26.548 26.552 17 38.5 16.391v3.44a1.167 1.167 0 002.333 0v-3.44C52.78 17 62.33 26.549 62.938 38.497h-4.607a1.167 1.167 0 100 2.333h4.607c-.608 11.948-10.157 21.498-22.105 22.106v-3.44a1.167 1.167 0 10-2.333 0v3.44c-11.948-.608-21.498-10.158-22.106-22.106h3.44a1.167 1.167 0 000-2.333z" fill="#fff"/><path d="M65.932 24.518a30.257 30.257 0 00-1.105-1.77l2.88-2.88a1.167 1.167 0 000-1.65l-6.591-6.59a1.167 1.167 0 00-1.65 0l-2.885 2.875a30.15 30.15 0 00-15.748-5.141V2.333h8.166a1.167 1.167 0 000-2.333H30.333a1.167 1.167 0 000 2.333H38.5v7.04a30.296 30.296 0 00-25.082 15.125H7.002a1.167 1.167 0 000 2.333h7c.03 0 .055-.015.086-.017.42.005.81-.218 1.018-.584 7.422-13.564 24.436-18.544 38-11.122 13.566 7.422 18.546 24.436 11.123 38-7.422 13.566-24.435 18.545-38 11.123A27.998 27.998 0 0115.106 53.11a1.155 1.155 0 00-1.016-.59c-.03 0-.057-.017-.089-.017h-7a1.167 1.167 0 000 2.333h6.417c8.372 14.501 26.914 19.47 41.415 11.098 14.501-8.371 19.47-26.914 11.099-41.415zm-7.444-8.613l1.803-1.803 4.942 4.941-1.806 1.806a30.655 30.655 0 00-4.94-4.944z" fill="#fff"/><path d="M11.668 39.664c0-.645-.522-1.167-1.166-1.167H1.169a1.167 1.167 0 000 2.333h9.333c.644 0 1.166-.522 1.166-1.166zM3.502 33.83h8.166a1.167 1.167 0 000-2.332H3.502a1.167 1.167 0 000 2.333zm9.333 12.833c0-.644-.523-1.166-1.167-1.166H3.502a1.167 1.167 0 000 2.333h8.166c.645 0 1.167-.523 1.167-1.167zm23.673.825a1.167 1.167 0 001.65 0l16.215-16.215a1.166 1.166 0 00-1.65-1.65l-15.39 15.39-6.941-6.94a1.167 1.167 0 00-1.65 1.65l7.766 7.765z" fill="#fff"/></svg>
